packages/ffe-icons/icons/open/300/sm/location_chip.svg

<svg xmlns="http://www.w3.org/2000/svg" height="20" viewBox="0 -960 960 960" width="20"><path d="M354.001-512.117q0 60.411 39.423 106.225 39.422 45.814 86.576 84.661 47.154-38.847 86.576-84.661 39.423-45.814 39.423-106.225 0-52.729-36.561-89.306-36.56-36.576-89.384-36.576-52.823 0-89.438 36.576-36.615 36.577-36.615 89.306ZM480.211-480Q465-480 454.5-490.289q-10.5-10.29-10.5-25.5Q444-531 454.289-541.5q10.29-10.5 25.5-10.5Q495-552 505.5-541.711q10.5 10.29 10.5 25.5Q516-501 505.711-490.5q-10.29 10.5-25.5 10.5ZM336-212.001q-111.985 0-189.992-77.915-78.007-77.915-78.007-189.769 0-111.853 78.007-190.083Q224.015-747.999 336-747.999h288q111.985 0 189.992 77.915 78.007 77.915 78.007 189.769 0 111.853-78.007 190.083Q735.985-212.001 624-212.001H336ZM336-264h288q89.64 0 152.82-63.18Q840-390.36 840-480q0-89.64-63.18-152.82Q713.64-696 624-696H336q-89.64 0-152.82 63.18Q120-569.64 120-480q0 89.64 63.18 152.82Q246.36-264 336-264Zm144-216Z"/></svg>

<svg xmlns="http://www.w3.org/2000/svg" height="20" viewBox="0 -960 960 960" width="20"><path d="M354-512.12q0 60.41 39.42 106.23 39.43 45.81 86.58 84.66 47.15-38.85 86.58-84.66Q606-451.71 606-512.12q0-52.73-36.56-89.3Q532.88-638 480.05-638q-52.82 0-89.43 36.58Q354-564.85 354-512.12ZM480.21-480q-15.21 0-25.71-10.29t-10.5-25.5q0-15.21 10.29-25.71t25.5-10.5q15.21 0 25.71 10.29t10.5 25.5q0 15.21-10.29 25.71t-25.5 10.5ZM336-212q-111.99 0-189.99-77.92Q68-367.83 68-479.68q0-111.86 78.01-190.09Q224.01-748 336-748h288q111.99 0 189.99 77.92Q892-592.17 892-480.32q0 111.86-78.01 190.09Q735.99-212 624-212H336Zm0-52h288q89.64 0 152.82-63.18Q840-390.36 840-480q0-89.64-63.18-152.82Q713.64-696 624-696H336q-89.64 0-152.82 63.18Q120-569.64 120-480q0 89.64 63.18 152.82Q246.36-264 336-264Zm144-216Z"/></svg>
